X:86
M:2/4
L:1/8
Q:1/4=140
K:Bb
f2 f/g/f/e/|d2 d/e/d/c/|BFBF|Bdfb|\
f2 f/g/f/e/|d2 d/e/d/c/|BF G/B/A/c/|B4:|
|:FA/c/ ec/A/|Bd/f/ bf/d/|gecA|B/A/B/c/ BB|\
|:b2B2|ff F2|GBAc|B/A/B/c/ BB|\
bf/d/ Bd/e/|fd/B/ FF|GBAc|B4:|

